packages/ffe-icons/icons/open/400/sm/filter_list_off.svg

<svg xmlns="http://www.w3.org/2000/svg" height="20" viewBox="0 -960 960 960" width="20"><path d="M742.92-167.078 115.08-793.922Q104-805 104-819.667q0-14.666 11-25.333 10.667-11 25.333-11 14.667 0 25.747 11.08l627.84 627.84Q805-206 805-191.818T794-167q-10.667 11-25.333 11-14.667 0-25.747-11.078ZM684-444q-14.927 0-25.463-10.268Q648-464.536 648-479.714 648-494 657.5-505q9.5-11 26.5-11 15.3 0 25.65 10.289 10.35 10.29 10.35 25.5Q720-465 709.65-454.5 699.3-444 684-444ZM504-624q-14.927 0-25.463-10.268Q468-644.536 468-659.714 468-674 477.5-685q9.5-11 26.5-11h276q15.3 0 25.65 10.289 10.35 10.29 10.35 25.5Q816-645 805.65-634.5 795.3-624 780-624H504Zm-84 360q-15.3 0-25.65-10.289-10.35-10.29-10.35-25.5Q384-315 394.35-325.5 404.7-336 420-336h120q15.3 0 25.65 10.289 10.35 10.29 10.35 25.5Q576-285 565.65-274.5 555.3-264 540-264H420ZM276-444q-15.3 0-25.65-10.289-10.35-10.29-10.35-25.5Q240-495 250.35-505.5 260.7-516 276-516h189v72H276Zm-96-180q-15.3 0-25.65-10.289-10.35-10.29-10.35-25.5Q144-675 154.35-685.5 164.7-696 180-696h105v72H180Z"/></svg>

<svg xmlns="http://www.w3.org/2000/svg" height="20" viewBox="0 -960 960 960" width="20"><path d="M742.92-167.08 115.08-793.92Q104-805 104-819.67q0-14.66 11-25.33 10.67-11 25.33-11 14.67 0 25.75 11.08l627.84 627.84Q805-206 805-191.82q0 14.18-11 24.82-10.67 11-25.33 11-14.67 0-25.75-11.08ZM684-444q-14.93 0-25.46-10.27Q648-464.54 648-479.71q0-14.29 9.5-25.29t26.5-11q15.3 0 25.65 10.29Q720-495.42 720-480.21t-10.35 25.71Q699.3-444 684-444ZM504-624q-14.93 0-25.46-10.27Q468-644.54 468-659.71q0-14.29 9.5-25.29t26.5-11h276q15.3 0 25.65 10.29Q816-675.42 816-660.21t-10.35 25.71Q795.3-624 780-624H504Zm-84 360q-15.3 0-25.65-10.29Q384-284.58 384-299.79t10.35-25.71Q404.7-336 420-336h120q15.3 0 25.65 10.29Q576-315.42 576-300.21t-10.35 25.71Q555.3-264 540-264H420ZM276-444q-15.3 0-25.65-10.29Q240-464.58 240-479.79t10.35-25.71Q260.7-516 276-516h189v72H276Zm-96-180q-15.3 0-25.65-10.29Q144-644.58 144-659.79t10.35-25.71Q164.7-696 180-696h105v72H180Z"/></svg>
